X:1
T:Les Sauvages
T:Les Sauvages
T:Jean Phillipe Rameau
T:Pieces de clavecin
C:Jean Phillipe Rameau
%%score { ( 1 4 ) | ( 2 3 ) }
L:1/8
Q:1/2=80
M:2/2
K:Bb
V:1 treble nm="Piano" snm="Pno."
V:4 treble 
V:2 bass 
V:3 bass 
V:1
 MB4 DGBc | MA2 D2 ^F2 A2 | Mc4 DAcd | MB2 D2 G2 B2 | Md4 GBdg | eedd ccBB | AAGG ^FG PG2 | %7
 AGP^F=E D z z2 | MB4 DGBc | MA2 D2 ^F2 A2 | Mc4 DAcd | MB2 D2 G2 B2 | Md4 GBdg | eedd ccBB | %14
 AdcB AGA^F | [DG]8!fine! |] Md4 FBde | Mc2 F2 A2 c2 | Me4 Acef | Md2 F2 B2 d2 | Mf4 Bdfb | %21
 ggff eedd | ccBB AB PB2 | cBAG FEDC | ME4 B,EBG | ME4 B,EBG | ME4 CEcE | ME4 D4 | MG4 CEGA | %29
 F4 B4 | B4 ABcA |"^D.C. al Fine"{A} MB8 | Mb4 dgbc' | bagf =edc=B | Mg4 A^c=ea | gf=ed ^c=BcA | %36
 Mf4 Adfg | f=edc =BAG^F | Md4 EGBe | P^c3 =B A4 | Mf4 Adfg | =e=B=b z z4 | Mf4 Adfg | %43
 =e=B=b z z4 | M=e4 A^cef | dA Ma6- | (a2 Pg)f =ede^c | dcBA G^F=ED!D.C.! || %48
V:2
 G,,4 G,2 G,,2 | D,4 ^F,A,C[I:staff -1]E |[I:staff +1] ^F,,2 A,,2 D,2 D,,2 | G,,4 B,,D,G,B, | %4
 B,,,2 G,,2 B,,2 D,2 | [C,C]2 [D,B,]2 [E,A,]2 [D,G,]2 | C2 B,2 A,2 G,2 | [D,^F,]4 z CPB,A, | %8
 G,4 G,,2 G,2 | D,4 ^F,A,C[I:staff -1]E |[I:staff +1] ^F,,2 A,,2 D,2 D,,2 | G,,4 B,,D,G,B, | %12
 B,,,2 G,,2 B,,2 D,2 | C2 B,2 A,2 G,2 | C,2 E2 D,2 D2 | [G,,G,B,]8 |]"^1.e Reprise" B,4 B,,2 B,2 | %17
 F,4 F,C[I:staff -1]FA |[I:staff +1] A,,2 C,2 F,2 F,,2 | B,,4 D,F,B,D | D,,2 F,,2 B,,2 D,2 | %21
 [E,E]2 [F,D]2 [G,C]2 [F,B,]2 | E2 D2 C2 B,2 | [F,A,]8 | MB,2 z2 z4 | MB,2 z2 z4 | MC2 z2 z4 | %27
 B,4 B,,4 | ME,6 C,2 | D,4 B,,D,F,B, | z2 C,2 F,4 | B,,D,F,B, DB,G,D, | %32
[K:treble]"^2.e Reprise" MG4 G,2 G2 | ^F2 =F2- F4 | M=E4 A,4 |[K:bass] MD4 D,4 | MD4 D,2 D2 | %37
 P^C2 =C6 | P=B,2 _B,6 | A,4 A,,4 | MA,4 A,,2 A,2 | ^G,3 =B,[I:staff -1] DFD[I:staff +1]G, | %42
 MA,4 A,,2 A,2 | ^G,3 =B,[I:staff -1] DFD[I:staff +1]^F, | M=G,4 G,,2 G,2 | %45
 P^F,3 F,[I:staff -1] DED[I:staff +1]=E, | F,2 G,2 MA,4 | MD,8 || %48
V:3
 x8 | x8 | x8 | x8 | x8 | x8 | C,2 D,2 E,4 | z8 | x8 | x8 | x8 | x8 | x8 | C,2 D,2 E,2 D,2 | x8 | %15
 z2 z D,, G,,,4 |] z8 | x8 | x8 | x8 | x8 | x8 | E,4 F,2 G,2 | x8 | G,2 z2 z4 | G,2 z2 z4 | %26
 A,2 z2 z4 | x8 | z4 E,,4 | x8 | F,,6 F,,2 | x8 |[K:treble] x8 | x8 | x8 |[K:bass] x8 | x8 | x8 | %38
 x8 | x8 | x8 | x8 | x8 | x8 | x8 | x8 | z4 z2 A,,2 | D,,8 || %48
V:4
 x8 | x8 | x8 | x8 | x8 | x8 | x8 | x8 | x8 | x8 | x8 | x8 | x8 | x8 | x8 | x8 |] x8 | x8 | x8 | %19
 x8 | x8 | x8 | x8 | x8 | x8 | x8 | x8 | x8 | x8 | z2 D4 D2 | C4 z4 | x8 | x8 | x8 | x8 | x8 | x8 | %37
 x8 | x8 | x8 | x8 | x8 | x8 | x8 | x8 | x8 | x8 | x8 || %48

